fs/shape_exclude_20_regular.svg

<svg viewBox="0 0 20 20" fill="none" xmlns="http://www.w3.org/2000/svg" height="1em" width="1em">
  <path d="M2.00021 10.5327L2 10.5V4.5C2 3.11929 3.11929 2 4.5 2H10.5L10.5144 2.00004C10.5285 2.00012 10.5426 2.00032 10.5567 2.00063C11.0447 2.01148 11.4982 2.16218 11.8788 2.41424C12.1592 2.60002 12.4001 2.84087 12.5858 3.12136C12.8131 3.46457 12.958 3.86713 12.9922 4.30082C12.9974 4.36653 13 4.43296 13 4.5V7H15.5C15.7412 7 15.9744 7.03416 16.1951 7.0979C16.5378 7.1969 16.8503 7.36727 17.1153 7.59187C17.4051 7.83744 17.6382 8.14785 17.7923 8.50069C17.9259 8.80674 18 9.14472 18 9.5V15.5C18 15.5729 17.9969 15.6451 17.9908 15.7164C17.8872 16.9245 16.9245 17.8872 15.7164 17.9908C15.6451 17.9969 15.5729 18 15.5 18H9.5C9.14473 18 8.80677 17.9259 8.50073 17.7923C8.14788 17.6383 7.83747 17.4052 7.59189 17.1154C7.36729 16.8503 7.19691 16.5379 7.09791 16.1951C7.03416 15.9744 7 15.7412 7 15.5V13H4.5C4.43297 13 4.36656 12.9974 4.30086 12.9922C3.86717 12.958 3.4646 12.8132 3.12139 12.5859C2.84089 12.4001 2.60004 12.1593 2.41426 11.8788C2.1622 11.4982 2.01149 11.0447 2.00063 10.5567L2.00021 10.5327ZM12 8H9.5C8.67157 8 8 8.67157 8 9.5V12H10.5C11.3284 12 12 11.3284 12 10.5V8ZM3 9.55733V10.5C3 10.7316 3.05249 10.951 3.14623 11.1468L11.1468 3.14622C10.9509 3.05249 10.7316 3 10.5 3H9.5573L3 9.55733ZM8.14309 3H6.5573L3 6.55732V8.14312L8.14309 3ZM3 5.1431L5.14309 3H4.5C3.67157 3 3 3.67157 3 4.5V5.1431ZM11.8538 3.85336L8.49858 7.20864C8.80519 7.07445 9.1439 7 9.5 7H10.293L12 5.293V4.5C12 4.26845 11.9475 4.04916 11.8538 3.85336ZM7.20864 8.49859L3.85339 11.8539C4.04918 11.9475 4.26846 12 4.5 12H5.29304L7 10.293V9.5C7 9.1439 7.07445 8.8052 7.20864 8.49859ZM8 13.7072V15.293L10.293 13H8.70724L8 13.7072ZM13 10.293L15.293 8H13.7072L13 8.70722V10.293ZM16.4042 8.30303L8.30305 16.4042C8.53998 16.7173 8.89696 16.9346 9.30551 16.9875L16.9875 9.30547C16.9346 8.89693 16.7173 8.53995 16.4042 8.30303ZM17 10.7072L10.7072 17H12.293L17 12.293V10.7072ZM17 13.7072L13.7072 17H15.293L17 15.293V13.7072Z" fill="#212121"/>
</svg>

<svg viewBox="0 0 20 20" fill="none" xmlns="http://www.w3.org/2000/svg" height="1em" width="1em">
  <path d="M2 10.533V4.5A2.5 2.5 0 0 1 4.5 2h6.057a2.487 2.487 0 0 1 2.029 1.121A2.486 2.486 0 0 1 13 4.5V7h2.5a2.502 2.502 0 0 1 2.292 1.5c.134.307.208.645.208 1v6a2.5 2.5 0 0 1-2.5 2.5h-6a2.492 2.492 0 0 1-1.908-.885A2.494 2.494 0 0 1 7 15.5V13H4.5a2.486 2.486 0 0 1-2.086-1.121 2.488 2.488 0 0 1-.413-1.322v-.024ZM12 8H9.5A1.5 1.5 0 0 0 8 9.5V12h2.5a1.5 1.5 0 0 0 1.5-1.5V8ZM3 9.557v.943c0 .232.052.451.146.647l8-8A1.494 1.494 0 0 0 10.5 3h-.943L3 9.557ZM8.143 3H6.557L3 6.557v1.586L8.143 3ZM3 5.143 5.143 3H4.5A1.5 1.5 0 0 0 3 4.5v.643Zm8.854-1.29L8.499 7.21A2.492 2.492 0 0 1 9.5 7h.793L12 5.293V4.5c0-.232-.053-.45-.146-.647ZM7.209 8.5l-3.356 3.355c.196.094.415.146.647.146h.793L7 10.293V9.5c0-.356.074-.695.209-1.001ZM8 13.707v1.586L10.293 13H8.707L8 13.707Zm5-3.414L15.293 8h-1.586L13 8.707v1.586Zm3.404-1.99-8.1 8.101a1.5 1.5 0 0 0 1.002.584l7.682-7.683a1.499 1.499 0 0 0-.584-1.002ZM17 10.707 10.707 17h1.586L17 12.293v-1.586Zm0 3L13.707 17h1.586L17 15.293v-1.586Z" fill="#212121"/>
</svg>
